svg/dotnet.svg

<?xml version="1.0" encoding="UTF-8"?>
<svg xmlns="http://www.w3.org/2000/svg" xmlns:xlink="http://www.w3.org/1999/xlink" width="32" height="32" viewBox="0 0 32 32">
<defs>
<filter id="filter-remove-color" x="0%" y="0%" width="100%" height="100%">
<feColorMatrix color-interpolation-filters="sRGB" values="0 0 0 0 1 0 0 0 0 1 0 0 0 0 1 0 0 0 1 0" />
</filter>
<image id="source-17" x="0" y="0" width="32" height="32" xlink:href="data:image/png;base64,iVBORw0KGgoAAAANSUhEUgAAACAAAAAgCAYAAABzenr0AAAABmJLR0QA/wD/AP+gvaeTAAAASUlEQVRYhe3QsQkAIBDF0Ci6gfvP6ACCFoII9lqYdFf9x8HvBaA82G1ABUhAfgBYJeYXbtb3I14ePxIgQIAAAQIECBAgQIAAAQNUdgNFKZsOEQAAAABJRU5ErkJggg=="/>
<mask id="mask-0">
<g filter="url(#filter-remove-color)">
<use xlink:href="#source-17"/>
</g>
</mask>
<clipPath id="clip-0">
<path clip-rule="nonzero" d="M 0 4.5 L 27.5 4.5 L 27.5 32 L 0 32 Z M 0 4.5 "/>
</clipPath>
<clipPath id="clip-1">
<rect x="0" y="0" width="32" height="32"/>
</clipPath>
<g id="source-16" clip-path="url(#clip-1)">
<g clip-path="url(#clip-0)">
<path fill-rule="nonzero" fill="rgb(100%, 100%, 100%)" fill-opacity="1" d="M 4.910156 4.5 C 0.476562 8.449219 -1.402344 14.527344 0.0234375 20.289062 C 1.449219 26.050781 5.949219 30.550781 11.710938 31.976562 C 17.472656 33.402344 23.550781 31.523438 27.5 27.089844 Z M 4.910156 4.5 "/>
</g>
</g>
<clipPath id="clip-2">
<rect x="0" y="0" width="32" height="32"/>
</clipPath>
<g id="source-19" clip-path="url(#clip-2)">
<g mask="url(#mask-0)">
<use xlink:href="#source-16"/>
</g>
</g>
</defs>
<path fill-rule="nonzero" fill="rgb(36.078431%, 17.647059%, 56.862745%)" fill-opacity="1" d="M 32 16 C 32 24.835938 24.835938 32 16 32 C 7.164062 32 0 24.835938 0 16 C 0 7.164062 7.164062 0 16 0 C 24.835938 0 32 7.164062 32 16 M 32 16 "/>
<use xlink:href="#source-19"/>
<path fill-rule="nonzero" fill="rgb(100%, 100%, 100%)" fill-opacity="1" d="M 3.699219 18.625 C 3.511719 18.628906 3.328125 18.550781 3.199219 18.414062 C 3.066406 18.285156 2.992188 18.101562 2.996094 17.914062 C 2.996094 17.527344 3.308594 17.207031 3.699219 17.203125 C 3.886719 17.203125 4.070312 17.277344 4.199219 17.414062 C 4.335938 17.546875 4.410156 17.726562 4.410156 17.914062 C 4.414062 18.101562 4.335938 18.285156 4.199219 18.414062 C 4.070312 18.550781 3.886719 18.625 3.699219 18.625 M 13.636719 18.5 L 12.324219 18.5 L 7.640625 11.230469 C 7.523438 11.050781 7.425781 10.859375 7.351562 10.660156 L 7.308594 10.660156 C 7.355469 11.074219 7.371094 11.492188 7.359375 11.910156 L 7.359375 18.5 L 6.296875 18.5 L 6.296875 9.386719 L 7.679688 9.386719 L 12.238281 16.523438 C 12.429688 16.820312 12.554688 17.023438 12.609375 17.136719 L 12.636719 17.136719 C 12.582031 16.691406 12.558594 16.246094 12.570312 15.796875 L 12.570312 9.386719 L 13.636719 9.386719 Z M 20.84375 18.5 L 16 18.5 L 16 9.386719 L 20.621094 9.386719 L 20.621094 10.351562 L 17.089844 10.351562 L 17.089844 13.378906 L 20.378906 13.378906 L 20.378906 14.339844 L 17.089844 14.339844 L 17.089844 17.5 L 20.851562 17.5 Z M 28 10.351562 L 25.351562 10.351562 L 25.351562 18.5 L 24.285156 18.5 L 24.285156 10.351562 L 21.664062 10.351562 L 21.664062 9.386719 L 28 9.386719 Z M 28 10.351562 "/>
<path fill-rule="nonzero" fill="rgb(94.901961%, 94.901961%, 94.901961%)" fill-opacity="1" d="M 13.058594 24.699219 C 12.699219 24.875 12.300781 24.957031 11.898438 24.945312 C 11.359375 24.96875 10.839844 24.757812 10.464844 24.371094 C 10.097656 23.960938 9.902344 23.421875 9.925781 22.871094 C 9.898438 22.265625 10.117188 21.679688 10.53125 21.238281 C 10.933594 20.824219 11.492188 20.601562 12.070312 20.621094 C 12.414062 20.609375 12.753906 20.667969 13.070312 20.796875 L 13.070312 21.296875 C 12.765625 21.125 12.421875 21.039062 12.070312 21.046875 C 11.625 21.03125 11.195312 21.214844 10.894531 21.546875 C 10.582031 21.902344 10.417969 22.363281 10.445312 22.835938 C 10.421875 23.28125 10.570312 23.722656 10.863281 24.058594 C 11.148438 24.367188 11.554688 24.53125 11.96875 24.515625 C 12.355469 24.523438 12.734375 24.429688 13.066406 24.234375 Z M 15.105469 24.945312 C 14.703125 24.957031 14.3125 24.792969 14.039062 24.5 C 13.765625 24.195312 13.625 23.796875 13.644531 23.386719 C 13.621094 22.953125 13.769531 22.527344 14.058594 22.203125 C 14.355469 21.914062 14.761719 21.761719 15.175781 21.78125 C 15.566406 21.757812 15.949219 21.910156 16.21875 22.195312 C 16.484375 22.515625 16.621094 22.925781 16.59375 23.339844 C 16.617188 23.761719 16.472656 24.175781 16.191406 24.488281 C 15.910156 24.789062 15.515625 24.957031 15.105469 24.945312 M 15.140625 22.210938 C 14.863281 22.199219 14.59375 22.3125 14.410156 22.523438 C 14.21875 22.773438 14.121094 23.082031 14.140625 23.394531 C 14.121094 23.699219 14.21875 24 14.410156 24.234375 C 14.597656 24.441406 14.863281 24.554688 15.140625 24.546875 C 15.414062 24.5625 15.675781 24.449219 15.855469 24.246094 C 16.035156 23.996094 16.125 23.691406 16.105469 23.386719 C 16.125 23.078125 16.035156 22.769531 15.855469 22.519531 C 15.679688 22.308594 15.414062 22.195312 15.140625 22.210938 M 18.929688 22.359375 C 18.820312 22.289062 18.695312 22.257812 18.566406 22.265625 C 18.363281 22.273438 18.175781 22.382812 18.066406 22.554688 C 17.917969 22.789062 17.84375 23.066406 17.859375 23.34375 L 17.859375 24.875 L 17.359375 24.875 L 17.359375 21.875 L 17.859375 21.875 L 17.859375 22.5 C 17.914062 22.304688 18.023438 22.132812 18.175781 22 C 18.304688 21.886719 18.472656 21.824219 18.644531 21.824219 C 18.742188 21.820312 18.835938 21.835938 18.929688 21.863281 Z M 21.859375 23.5 L 19.746094 23.5 C 19.730469 23.78125 19.820312 24.054688 20 24.269531 C 20.1875 24.457031 20.445312 24.554688 20.710938 24.539062 C 21.050781 24.535156 21.378906 24.417969 21.640625 24.203125 L 21.640625 24.65625 C 21.328125 24.859375 20.964844 24.957031 20.59375 24.941406 C 20.21875 24.953125 19.851562 24.804688 19.59375 24.53125 C 19.332031 24.207031 19.203125 23.796875 19.230469 23.378906 C 19.210938 22.960938 19.351562 22.554688 19.625 22.238281 C 19.875 21.949219 20.242188 21.789062 20.625 21.800781 C 20.96875 21.78125 21.304688 21.921875 21.535156 22.179688 C 21.765625 22.484375 21.878906 22.859375 21.855469 23.238281 Z M 21.359375 23.09375 C 21.371094 22.863281 21.300781 22.632812 21.160156 22.449219 C 21.023438 22.292969 20.820312 22.207031 20.609375 22.21875 C 20.390625 22.21875 20.183594 22.304688 20.035156 22.464844 C 19.871094 22.640625 19.765625 22.863281 19.738281 23.101562 Z M 21.359375 23.09375 "/>
</svg>

<svg role="img" viewBox="0 0 32 32" height="32" width="32" xmlns="http://www.w3.org/2000/svg"><defs><clipPath id="122__115__107__clip-0"><path d="M0 4.5h27.5V32H0Zm0 0"/></clipPath><clipPath id="123__116__109__clip-2"><path d="M0 0h32v32H0z"/></clipPath><g clip-path="url(#122__115__107__clip-0)" id="124__117__110__source-16"><path d="M4.91 4.5A16 16 0 1 0 27.5 27.09Zm0 0" fill="rgb(100%, 100%, 100%)"/></g><g clip-path="url(#123__116__109__clip-2)" id="125__118__111__source-19" mask="url(#126__119__112__mask-0)"><use href="#124__117__110__source-16"/></g><filter height="100%" id="127__120__113__filter-remove-color" width="100%" x="0%" y="0%"><feColorMatrix color-interpolation-filters="sRGB" values="0 0 0 0 1 0 0 0 0 1 0 0 0 0 1 0 0 0 1 0"/></filter><image height="32" href="data:image/png;base64,iVBORw0KGgoAAAANSUhEUgAAACAAAAAgCAYAAABzenr0AAAABmJLR0QA/wD/AP+gvaeTAAAASUlEQVRYhe3QsQkAIBDF0Ci6gfvP6ACCFoII9lqYdFf9x8HvBaA82G1ABUhAfgBYJeYXbtb3I14ePxIgQIAAAQIECBAgQIAAAQNUdgNFKZsOEQAAAABJRU5ErkJggg==" id="128__121__114__source-17" width="32" x="0" y="0"/><mask id="126__119__112__mask-0"><g filter="url(#127__120__113__filter-remove-color)"><use href="#128__121__114__source-17"/></g></mask></defs><path d="M32 16c0 8.836-7.164 16-16 16S0 24.836 0 16 7.164 0 16 0s16 7.164 16 16m0 0" fill="rgb(36.078431%, 17.647059%, 56.862745%)"/><use href="#125__118__111__source-19"/><path d="M3.7 18.625a.673.673 0 0 1-.5-.21.68.68 0 0 1-.204-.5c0-.388.313-.708.703-.712.188 0 .371.074.5.211a.694.694 0 0 1 .211.5.681.681 0 0 1-.21.5.694.694 0 0 1-.5.211m9.937-.125h-1.313l-4.683-7.27a2.899 2.899 0 0 1-.29-.57H7.31c.046.414.062.832.05 1.25v6.59H6.297V9.387H7.68l4.558 7.136c.192.297.317.5.371.614h.028a9.03 9.03 0 0 1-.067-1.34v-6.41h1.067Zm7.207 0H16V9.387h4.621v.965H17.09v3.027h3.289v.96h-3.29V17.5h3.763ZM28 10.352h-2.648V18.5h-1.067v-8.148h-2.62v-.965H28Zm0 0" fill="rgb(100%, 100%, 100%)"/><path d="M13.059 24.7a2.48 2.48 0 0 1-1.16.245 1.882 1.882 0 0 1-1.434-.574 2.118 2.118 0 0 1-.54-1.5 2.235 2.235 0 0 1 .606-1.633 2.05 2.05 0 0 1 1.54-.617c.343-.012.683.047 1 .176v.5a1.942 1.942 0 0 0-1-.25 1.516 1.516 0 0 0-1.176.5 1.795 1.795 0 0 0-.45 1.289c-.023.445.125.887.418 1.223.285.308.692.472 1.106.457.386.007.765-.086 1.097-.282Zm2.046.245a1.408 1.408 0 0 1-1.066-.445 1.552 1.552 0 0 1-.394-1.113c-.024-.434.125-.86.414-1.184a1.503 1.503 0 0 1 1.117-.422c.39-.023.773.13 1.043.414.265.32.402.73.375 1.145.023.422-.121.836-.403 1.148-.28.301-.675.469-1.086.457m.036-2.734a.916.916 0 0 0-.73.312c-.192.25-.29.559-.27.872-.02.304.078.605.27.84.187.206.452.32.73.312a.887.887 0 0 0 .714-.3c.18-.25.27-.556.25-.86a1.34 1.34 0 0 0-.25-.867.865.865 0 0 0-.714-.31m3.789.15a.598.598 0 0 0-.364-.094.624.624 0 0 0-.5.289 1.34 1.34 0 0 0-.207.789v1.531h-.5v-3h.5v.625a1.03 1.03 0 0 1 .317-.5.712.712 0 0 1 .469-.176.883.883 0 0 1 .285.04Zm2.93 1.14h-2.114a1.1 1.1 0 0 0 .254.77.926.926 0 0 0 .71.27 1.49 1.49 0 0 0 .93-.337v.453a1.77 1.77 0 0 1-1.046.285 1.307 1.307 0 0 1-1-.41 1.658 1.658 0 0 1-.364-1.152c-.02-.418.122-.824.395-1.14.25-.29.617-.45 1-.438.344-.02.68.12.91.379.23.304.344.68.32 1.058Zm-.5-.406a.982.982 0 0 0-.2-.645.682.682 0 0 0-.55-.23.777.777 0 0 0-.575.246 1.12 1.12 0 0 0-.297.637Zm0 0" fill="rgb(94.901961%, 94.901961%, 94.901961%)"/></svg>
